X:1
T:KITTY CLOVER
L:1/8
M:6/8
I:linebreak $
K:A
V:1 treble 
V:1
 E | A2 c e2 e | fe^d e2 c | dcd B2 B | cBc A2 E | A2 c e2 e | fe^d e2 c | dcd B2 c | A3- A2 |: %9
 e |$ a2 a g2 g | f2 f e3 | aba gag | fef e2 e | A2 c eee | fe^d e2 c | dcd B2 c | A3- A2 :| %18
